X: 8340
T: Cotton Tree, The
R: reel
M: 4/4
K: Eminor
BEEE BEGA|B2AB GEDB|dGGG dGBd|e2dB ABGA|
BEEE BEGA|B2AB GEDB|dGG2 dGBd|e2dB ABGA:|
|:dGGG dGBe|dGBd g2ge|dGGG B3G|ABcd edeg|
[1 dGGG dGBe|dGBd gfge|dGGG B3G|ABcd edeg:|
[2 b2ab bge2|gdeg d2BG|A2AG AGAB|c6 z2||

